!!!SOCIAL_FUNCTION:	war songs
!!!PDT:	1929
!!!OTL: No_143_Song_of_the_Limo.krn
!!!REG: Southwest
!!!LANG: Non-Tone
!!!LING_GROUP: Uto-Aztecan
**kern
*staff1
=1-
*clefF4
*k[f#c#g#d#]
*M3/4
4.G#\
8A#\
4G#\
=2
12G#\L
12G#\
12G#\J
4E\
8D#/L
8C#/J
=3!|:
12G#\L
12G#\
12G#\J
4E\
8D#/L
8C#/J
=4
12E\L
12E\
12C#\J
8.D#/L
16C#/Jk
4C#/
=5||
*M2/4
12D#/L
12C#/
12C#/J
8.D#/L
16C#/Jk
=6
4C#/
8C#/L
8C#/J
=7
8.E\L
16D#\Jk
12E\L
12E\
12C#\J
=8
8D#/L
8C#/J
8C#/L
8C#/J
=9
8D#/L
8C#/J
4C#/
=10
8D#/L
8C#/J
4C#/
=11
8C#/L
8C#/J
4C#/
=12
8E\L
16.E\L
32E\JJk
12E\L
12E\
12C#\J
=13
8D#\L
8D#\J
4D#\
=14
8E\L
16.E\L
32E\JJk
12E\L
12E\
12C#\J
=15
8D#\L
8D#\J
4D#\
==:|!
*-
